X: 73
T:Castell Caernarfon
M:6/8
L:1/8
Q:130
C:Trad
S:Blodau'r Grug Collection Vol. 3
A:Wales
Z:brian_martin12345@yahoo.com
K:G
g|dBG GBd|ded BAG|BAG GBd|e3g2g|dBG GBd|!
ded BAG|BAG GBd|e3 g2:||
g|dfg gfg|afd gdB|!
gab agf|e3g2g/a/|bab afa|gfg edc|BAG GBd|e3g2:||

